client/public/img/game/shared/skins/werewolf_fist.svg

<?xml version="1.0" encoding="UTF-8" standalone="no"?>
<!-- Created with Inkscape (http://www.inkscape.org/) -->

<svg
   width="34.001247"
   height="34.001247"
   viewBox="0 0 8.9961629 8.9961633"
   version="1.1"
   id="svg1"
   xml:space="preserve"
   inkscape:version="1.4 (86a8ad7, 2024-10-11)"
   sodipodi:docname="werewolf_fist.svg"
   xmlns:inkscape="http://www.inkscape.org/namespaces/inkscape"
   xmlns:sodipodi="http://sodipodi.sourceforge.net/DTD/sodipodi-0.dtd"
   xmlns:xlink="http://www.w3.org/1999/xlink"
   xmlns="http://www.w3.org/2000/svg"
   xmlns:svg="http://www.w3.org/2000/svg"><sodipodi:namedview
     id="namedview1"
     pagecolor="#ffffff"
     bordercolor="#000000"
     borderopacity="0.25"
     inkscape:showpageshadow="2"
     inkscape:pageopacity="0.0"
     inkscape:pagecheckerboard="0"
     inkscape:deskcolor="#d1d1d1"
     inkscape:document-units="mm"
     showguides="false"
     inkscape:zoom="14.875432"
     inkscape:cx="16.302048"
     inkscape:cy="21.007794"
     inkscape:window-width="1920"
     inkscape:window-height="991"
     inkscape:window-x="-9"
     inkscape:window-y="-9"
     inkscape:window-maximized="1"
     inkscape:current-layer="layer1" /><defs
     id="defs1"><linearGradient
       xlink:href="#a"
       id="b"
       x1="90.310997"
       x2="99.306999"
       y1="100.64"
       y2="100.64"
       gradientTransform="matrix(0.99998146,0,0,0.99998146,-121.19929,-102.64619)"
       gradientUnits="userSpaceOnUse" /><linearGradient
       id="a"
       x1="258.72198"
       x2="288.28299"
       y1="211.039"
       y2="211.039"
       gradientTransform="matrix(1.01484,0,0,1.01484,-260.561,-197.17)"
       gradientUnits="userSpaceOnUse"><stop
         offset="0"
         stop-color="#ffe693"
         style="stop-color:#fff;stop-opacity:1"
         id="stop1" /><stop
         offset=".8"
         stop-color="#ffe693"
         style="stop-color:#0079ff;stop-opacity:1"
         id="stop2" /><stop
         offset="1"
         stop-color="#deb04c"
         style="stop-color:#0007ff;stop-opacity:1"
         id="stop3" /></linearGradient></defs><g
     inkscape:label="Layer 1"
     inkscape:groupmode="layer"
     id="layer1"
     transform="translate(6.507139,-21.893965)"><g
       id="g4-4"
       transform="matrix(0,-1.2060287,1.1893837,0,-15.843965,37.430499)" /><circle
       cx="-26.392046"
       cy="-2.0090575"
       r="3.9689264"
       style="fill:#333333;fill-opacity:1;stroke:#212121;stroke-width:1.05831;stroke-linecap:square;stroke-linejoin:bevel;stroke-miterlimit:4;stroke-dasharray:none;stroke-opacity:1"
       transform="rotate(-90)"
       id="circle3" /><g
       id="g3-2"
       style="fill:#4d4d4d;fill-opacity:1;stroke:#212121;stroke-width:0.529167;stroke-linecap:square;stroke-linejoin:miter;stroke-dasharray:none;stroke-opacity:1"
       transform="matrix(0,-1.1899349,1.463807,0,-33.504162,31.677917)"><path
         id="path2-7"
         style="fill:#4d4d4d;fill-opacity:1;fill-rule:evenodd;stroke:#212121;stroke-width:0.529167;stroke-linecap:square;stroke-linejoin:miter;stroke-miterlimit:29;stroke-dasharray:none;stroke-opacity:1"
         d="m 1.1390989,23.616494 0.2383778,-1.000254 0.2383781,-1.000256 0.7470573,0.706569 0.7470572,0.706569 -0.9854352,0.293686 z"
         inkscape:transform-center-x="-0.16955976"
         inkscape:transform-center-y="-0.13762797" /><path
         id="path2-0-9"
         style="fill:#4d4d4d;fill-opacity:1;fill-rule:evenodd;stroke:#212121;stroke-width:0.529167;stroke-linecap:square;stroke-linejoin:miter;stroke-miterlimit:29;stroke-dasharray:none;stroke-opacity:1"
         d="M 7.8086238,23.616494 7.5702459,22.61624 7.3318678,21.615984 6.5848105,22.322553 5.8377534,23.029122 6.8231885,23.322808 Z"
         inkscape:transform-center-x="0.16955972"
         inkscape:transform-center-y="-0.13762797" /><path
         id="path2-2-2"
         style="fill:#4d4d4d;fill-opacity:1;fill-rule:evenodd;stroke:#212121;stroke-width:0.529167;stroke-linecap:square;stroke-linejoin:miter;stroke-miterlimit:29;stroke-dasharray:none;stroke-opacity:1"
         d="M 2.6855573,22.931773 3.6858119,23.17015 4.6860673,23.408529 3.979499,24.155586 3.2729298,24.179642 2.9792436,23.917208 Z"
         inkscape:transform-center-x="-0.13762757"
         inkscape:transform-center-y="0.16955999"
         sodipodi:nodetypes="ccccccc" /><path
         id="path2-2-9-3"
         style="fill:#4d4d4d;fill-opacity:1;fill-rule:evenodd;stroke:#212121;stroke-width:0.529167;stroke-linecap:square;stroke-linejoin:miter;stroke-miterlimit:29;stroke-dasharray:none;stroke-opacity:1"
         d="m 6.2621653,22.931773 -1.0002545,0.238377 -1.0002555,0.238379 0.7065683,0.747057 0.7065692,0.02406 0.2936863,-0.262434 z"
         inkscape:transform-center-x="0.1376276"
         inkscape:transform-center-y="0.16955999"
         sodipodi:nodetypes="ccccccc" /></g></g></svg>

<svg xmlns="http://www.w3.org/2000/svg" xml:space="preserve" width="34.001" height="34.001" viewBox="0 0 8.996 8.996"><g transform="translate(6.507 -21.894)"><circle cx="-26.392" cy="-2.009" r="3.969" style="fill:#333;fill-opacity:1;stroke:#212121;stroke-width:1.05831;stroke-linecap:square;stroke-linejoin:bevel;stroke-miterlimit:4;stroke-dasharray:none;stroke-opacity:1" transform="rotate(-90)"/><g style="fill:#4d4d4d;fill-opacity:1;stroke:#212121;stroke-width:.529167;stroke-linecap:square;stroke-linejoin:miter;stroke-dasharray:none;stroke-opacity:1"><path d="m1.14 23.616.237-1 .239-1 .747.707.747.706-.985.294zM7.809 23.616l-.239-1-.238-1-.747.707-.747.706.985.294Z" style="fill:#4d4d4d;fill-opacity:1;fill-rule:evenodd;stroke:#212121;stroke-width:.529167;stroke-linecap:square;stroke-linejoin:miter;stroke-miterlimit:29;stroke-dasharray:none;stroke-opacity:1" transform="matrix(0 -1.18993 1.4638 0 -33.504 31.678)"/><path d="m2.686 22.932 1 .238 1 .239-.707.747-.706.024-.294-.263Z" style="fill:#4d4d4d;fill-opacity:1;fill-rule:evenodd;stroke:#212121;stroke-width:.529167;stroke-linecap:square;stroke-linejoin:miter;stroke-miterlimit:29;stroke-dasharray:none;stroke-opacity:1" transform="matrix(0 -1.18993 1.4638 0 -33.504 31.678)"/><path d="m6.262 22.932-1 .238-1 .239.706.747.707.024.293-.263z" style="fill:#4d4d4d;fill-opacity:1;fill-rule:evenodd;stroke:#212121;stroke-width:.529167;stroke-linecap:square;stroke-linejoin:miter;stroke-miterlimit:29;stroke-dasharray:none;stroke-opacity:1" transform="matrix(0 -1.18993 1.4638 0 -33.504 31.678)"/></g></g></svg>
